src/assets/images/illu-wave.svg

<?xml version="1.0" encoding="UTF-8"?>
<svg width="1440px" height="1504px" viewBox="0 0 1440 1504" version="1.1" xmlns="http://www.w3.org/2000/svg" xmlns:xlink="http://www.w3.org/1999/xlink">
    <!-- Generator: Sketch 54.1 (76490) - https://sketchapp.com -->
    <title>Group 9</title>
    <desc>Created with Sketch.</desc>
    <defs>
        <polygon id="path-1" points="0 0 2446 0 2446 1626 0 1626"></polygon>
        <polygon id="path-3" points="0 0 8798 0 8798 1626 0 1626"></polygon>
    </defs>
    <g id="Page-1" stroke="none" stroke-width="1" fill="none" fill-rule="evenodd">
        <g id="Desktop-HD-Copy-2" transform="translate(0.000000, -228.000000)">
            <g id="Group-9" transform="translate(-4976.000000, -249.000000)">
                <g id="Group-3" transform="translate(4843.000000, 0.000000)">
                    <mask id="mask-2" fill="white">
                        <use xlink:href="#path-1"></use>
                    </mask>
                    <g id="Clip-2"></g>
                    <path d="M2212.31077,620.6294 C2272.00219,963.87579 2201.76499,1420.62359 489.067599,1619.04013 C-76.1978028,1684.5263 -105.734218,1268.03041 168.46278,1201.09979 C341.419889,1158.88527 373.556664,1256.61928 529.140624,1228.54199 C657.806857,1205.32308 619.839321,1108.22416 710.535727,1011.12983 C866.367122,844.300825 1050.12202,1047.01172 1142.9285,755.721851 C1189.86097,608.418094 1316.90055,630.46998 1377.05476,557.305316 C1514.1567,390.55197 1829.29962,518.534532 1874.83454,641.738957 C1931.78356,795.827028 1983.98319,4.30692338 2121.61436,0.0515375609 C2238.8161,-3.56875027 2138.62552,184.663289 2279.80785,211.133348 C2392.61532,232.284174 2260.2284,332.563167 2366.2864,369.444706 C2619.36894,457.450486 2186.61647,472.867089 2212.31077,620.6294" id="Fill-1" fill="#49C5B6" mask="url(#mask-2)"></path>
                </g>
                <g id="Group-3-Copy" transform="translate(4470.000000, 1903.310411) scale(-1, -1) rotate(8.000000) translate(-4470.000000, -1903.310411) translate(71.000000, 1090.310411)">
                    <mask id="mask-4" fill="white">
                        <use xlink:href="#path-3"></use>
                    </mask>
                    <g id="Clip-2"></g>
                    <path d="M7957.44487,620.6294 C8172.1485,963.87579 7919.51285,1420.62359 1759.12377,1619.04013 C-274.075335,1684.5263 -380.314656,1268.03041 605.942576,1201.09979 C1228.05077,1158.88527 1343.64331,1256.61928 1903.26215,1228.54199 C2366.0608,1205.32308 2229.49564,1108.22416 2555.7209,1011.12983 C3116.22974,844.300825 3777.17643,1047.01172 4110.99139,755.721851 C4279.80248,608.418094 4736.75022,630.46998 4953.11849,557.305316 C5446.25946,390.55197 6579.79479,518.534532 6743.57903,641.738957 C6948.41853,795.827028 7136.17502,4.30692338 7631.21961,0.0515375609 C8052.78172,-3.56875027 7692.40693,184.663289 8200.22462,211.133348 C8605.98104,232.284174 8129.79946,332.563167 8511.27872,369.444706 C9421.58951,457.450486 7865.02523,472.867089 7957.44487,620.6294" id="Fill-1" fill="#49C5B6" mask="url(#mask-4)"></path>
                </g>
            </g>
        </g>
    </g>
</svg>

<svg width="1440" height="1504" xmlns="http://www.w3.org/2000/svg" xmlns:xlink="http://www.w3.org/1999/xlink"><defs><path id="a" d="M0 0h2446v1626H0z"/><path id="c" d="M0 0h8798v1626H0z"/></defs><g fill="none" fill-rule="evenodd"><g transform="translate(-133 -477)"><mask id="b" fill="#fff"><use xlink:href="#a"/></mask><path d="M2212.31 620.63c59.692 343.246-10.545 799.994-1723.242 998.41-565.266 65.486-594.802-351.01-320.605-417.94 172.957-42.215 205.094 55.52 360.678 27.442 128.666-23.219 90.698-120.318 181.395-217.412 155.831-166.83 339.586 35.882 432.393-255.408 46.932-147.304 173.972-125.252 234.126-198.417 137.102-166.753 452.245-38.77 497.78 84.434C1931.784 795.827 1983.983 4.307 2121.615.052c117.201-3.62 17.01 184.611 158.193 211.081 112.807 21.151-19.58 121.43 86.478 158.312 253.083 88.005-179.67 103.422-153.975 251.184" fill="#49C5B6" mask="url(#b)"/></g><g transform="rotate(-172 1967.943 1291.15)"><mask id="d" fill="#fff"><use xlink:href="#c"/></mask><path d="M7957.445 620.63c214.704 343.246-37.932 799.994-6198.321 998.41-2033.2 65.486-2139.439-351.01-1153.181-417.94 622.108-42.215 737.7 55.52 1297.32 27.442 462.798-23.219 326.233-120.318 652.458-217.412 560.509-166.83 1221.455 35.882 1555.27-255.408 168.811-147.304 625.76-125.252 842.127-198.417 493.141-166.753 1626.677-38.77 1790.461 84.434C6948.419 795.827 7136.175 4.307 7631.219.052c421.563-3.62 61.188 184.611 569.006 211.081 405.756 21.151-70.426 121.43 311.054 158.312 910.31 88.005-646.254 103.422-553.834 251.184" fill="#49C5B6" mask="url(#d)"/></g></g></svg>
